X:1
T:Keep On The Firing Line
T:Alphus 
T:Bessie F. Hatcher
T:1915
Z:1915
%%score ( 1 2 )
L:1/8
M:4/4
K:E
V:1 treble nm="Voice" snm="Vo."
V:2 treble 
V:1
 G^^FG^^F G^^FG^^F | G G3 E4 | E E2 F E2 C2 | E6 z2 | G^^FG^^F G^^FG^^F | G G3 E4 | F F2 E F2 G2 | %7
 F6 z2 | G^^FG^^F G^^FG^^F | G G3 E4 | ECEC ECEC | E E3 E4 | EEED FEFG | A A3 A2 BA | %14
 G G2 E F2 F2 | E4- EGGF | E3 E E3 C | E2 E2 C B,3 | E E3 E2 E2 | FFFG F4 | G G2 G G2 G2 | %21
 A A2 A A2 BA | G G2 E F2 F2 | E6 z2 |] %24
V:2
 B,^A, z2 z4 | B, B,3 G,4 | A, A,2 A, A,2 A,2 | G,2 A,2 G,2 z2 | x8 | x8 | ^A,4 z4 | B,4 z4 | %8
 B,^A, z2 z4 | B, B,3 G,4 | A,4 z4 | A, A,3 G,4 | G,G,^^F,G, A,G,A,B, | C C3 C2 DC | %14
 B, B,2 G, A,2 A,2 | G,4- G, z z2 | x8 | x8 | x8 | ^A, z z2 B,4 | B, B,2 =C ^C2 C2 | C C2 C C2 z2 | %22
 B,2 z2 A,2 A,2 | G,2 A,2 G,2 z2 |] %24

